!!!OTL: 56e. Die Kindsmoerderin.
!!!ARE: Europa, Mitteleuropa, Deutschland, Limburg; Unter - Lahnkreis
!!!SCT: E0056E
!!!TXL: @@DE
!!!YEM: Copyright 1995, estate of Helmut Schaffrath.
**kern	**text
*ICvox	*
*M3/4	*
*k[f#]	*
*G:	*
!LO:TX:a:t=Langſam.	!
!LO:TX:a:t=Aus dem Kreis Limburg und Unterlahnkreis.	!
{4d	Ach
=1	=1
8dL	Hann-
8bJ	.
4b	-chen,
8a	ſchön-
8g	-ſtes
=2	=2
8f#L	Hann-
8aJ	.
4a}	-chen,
{8a	mit
8b	dir
=3	=3
8ccL	iſt
8eeJ	.
4ee	es
8ddL	bald
8ccJ	.
=4	=4
4b	aus,
4r}	.
{8a	denn
8b	ſie
=5	=5
8ccL	wer-
8eeJ	.
4ee	-den
8dd	dich
8cc	bald
=6	=6
8bL	ſüh-
8ddJ	.
4dd}	-ren
{8cc	ʒu
8b	dem
=7	=7
8a/L	Schandthor
8ddJ	.
4dd	.
4cc	hin-
=8	=8
2b}	-aus.
==	==
!!!AGN: erzaehlendes Volks - Lied, Sage, Kinds - Mord, Ballade ?
!!!ONB: ESAC (Essen Associative Code) Database: ERK1
!!!AMT: simple triple
!!!AIN: vox
!!!EED: Helmut Schaffrath
!!!EEV: 1.0
!!!GTL: Sagen von Mordthaten, unschuldig Gesangeg und Hinrichtungen
!!!URL-scan: https://rosdok.uni-rostock.de/mcrviewer/recordIdentifier/rosdok_ppn745146120/iview2/phys_0252.iview2?x=-4.404412318551749&y=1020.7788239676738&scale=0.6456904138606623&rotation=0&layout=singlePageLayout&logicalDiv=log_0009
!!!ENC: Anna Maria Matuszewska
!!!EEV: 2024/11/25
*-	*-
